.files/icons/devices/USB-storage.svg

<svg fill="none" height="48" viewBox="0 0 48 48" width="48" xmlns="http://www.w3.org/2000/svg"><g clip-rule="evenodd" fill="#000" fill-rule="evenodd"><path d="m23.0001 34.8995-9.8995-9.8995c-.7811-.781-.7811-2.0473 0-2.8284l14.1421-14.14212c1.5621-1.56209 4.0948-1.56209 5.6568 0l7.0711 7.07112c1.5621 1.562 1.5621 4.0947 0 5.6568l-14.1421 14.1421c-.7811.7811-2.0474.7811-2.8284 0z"/><path d="m13.8077 39.8492-5.6569-5.6569c-.39052-.3905-.39052-1.0237 0-1.4142l4.9498-4.9497 7.071 7.071-4.9497 4.9498c-.3906.3905-1.0237.3905-1.4142 0z" opacity=".3"/></g></svg>

<svg width="48" height="48" viewBox="0 0 48 48" fill="none" xmlns="http://www.w3.org/2000/svg">
<path fill-rule="evenodd" clip-rule="evenodd" d="M23.0001 34.8995L13.1006 25C12.3195 24.219 12.3195 22.9527 13.1006 22.1716L27.2427 8.02948C28.8048 6.46739 31.3375 6.46739 32.8995 8.02948L39.9706 15.1006C41.5327 16.6626 41.5327 19.1953 39.9706 20.7574L25.8285 34.8995C25.0474 35.6806 23.7811 35.6806 23.0001 34.8995Z" fill="black"/>
<path opacity="0.3" fill-rule="evenodd" clip-rule="evenodd" d="M13.8077 39.8492L8.1508 34.1923C7.76028 33.8018 7.76028 33.1686 8.1508 32.7781L13.1006 27.8284L20.1716 34.8994L15.2219 39.8492C14.8313 40.2397 14.1982 40.2397 13.8077 39.8492Z" fill="black"/>
</svg>
